!!!COM: Haydn, Franz Joseph
!!!OTL: String Quartet in B-flat Major
!!!OPS: Opus 33
!!!ONM: No. 4
!!!OMD: Scherzo: Allegretto
!!!OMV: 2
!!!SCT: H III:40
!!!SCA: Thematisch-bibliographisches Werkevererzeichnis (A. van Hoboken)
!!!YOR: Trautwein Edition
!!!ENC: Frances Bennion
!!!CDT: 1732/3/31/-1809/5/31/
!!!CNT: Oesterreich
!!!YEC: Copyright (c) 1994, 2000 Center for Computer Assisted Research in the Humanities
!!!YEM: Rights to all derivative editions reserved.
!!!YEM: Refer to licensing agreement for further details.
!!!YEN: United States of America
**kern	**kern	**kern	**kern
*k[b-e-]	*k[b-e-]	*k[b-e-]	*k[b-e-]
*B-:	*B-:	*B-:	*B-:
*clefF4	*clefC3	*clefG	*clefG
*M3/4	*M3/4	*M3/4	*M3/4
4BB-	2B-	4..d	4..dd
4B-	.	.	.
.	.	16f	16ff
4c	4c	8.e-	8.ee-
.	.	16g	16gg
=2	=2	=2	=2
4d	4d	4f	4ff
2r	2r	4d	4dd
.	.	4B-	4b-
=3	=3	=3	=3
4FF	2A	4..c	4..cc
4A	.	.	.
.	.	16e-	16ee-
4B-	4B-	8.d	8.dd
.	.	16f	16ff
=4	=4	=4	=4
4c	4c	4e-	4ee-
2r	2r	4c	4cc
.	.	4A	4a
=5	=5	=5	=5
4DD	4d	[2.B-	[2.b-
8.D	8.f	.	.
16F	16a-	.	.
8.E-	8.g	.	.
16G	16b-	.	.
=6	=6	=6	=6
4F	4a-	2B-]	2b-]
4D	4f	.	.
4G	4d	4f	4b
=7	=7	=7	=7
4C	4e-	4e-	4cc
4r	4r	4r	8.ee-
.	.	.	16cc
4F	4c	4e-	8.a
.	.	.	16cc
=8	=8	=8	=8
4BB-	4d	4d	4b-
4F	2r	2r	2r
4B-	.	.	.
=9	=9	=9	=9
2.r	4r	4r	4..ff
.	4f	4a	.
.	.	.	16aa
.	4g	4b-	8.ee
.	.	.	16gg
=10	=10	=10	=10
2.r	2a	2cc	4ff
.	.	.	4cc
.	4g	4b-	4ee
=11	=11	=11	=11
2.r	4f	4a	4..ff
.	4f	4a	.
.	.	.	16aa
.	4g	4b-	8.ee
.	.	.	16gg
=12	=12	=12	=12
2.r	4a	4cc	4ff
.	2r	2r	4cc
.	.	.	4dd
=13	=13	=13	=13
4r	4r	4..e-	4..ee-
4G	4B-	.	.
.	.	16f	16ff
4F	4A	8.d	8.dd
.	.	16e-	16ee-
=14	=14	=14	=14
4r	4r	4..c	4..cc
4E-	4G	.	.
.	.	16d	16dd
4D	4F	8.B-	8.b-
.	.	16c	16cc
=15	=15	=15	=15
4C	4E-	4A	4a
4BB-	4D	4B-	4b-
4EE	4B-	4b-	4dd
=16	=16	=16	=16
2FF	4F	2a	2cc
.	2r	.	.
4r	.	4r	4cc#
=17	=17	=17	=17
4BB-	[2.f	4..d	4..dd
4B-	.	.	.
.	.	16f	16ff
4c	.	8.e-	8.ee-
.	.	16g	16gg
=18	=18	=18	=18
4d	2.f_	4f	4ff
2r	.	4d	4dd
.	.	4B-	4b-
=19	=19	=19	=19
4FF	2.f_	4..c	4..cc
4A	.	.	.
.	.	16e-	16ee-
4B-	.	8.d	8.dd
.	.	16f	16ff
=20	=20	=20	=20
4c	2.f]	4e-	4ee-
2r	.	4c	4cc
.	.	4A	4a
=21	=21	=21	=21
4DD	4d	[2.B-	[2.b-
8.D	8.f	.	.
16F	16a-	.	.
8.E-	8.g	.	.
16G	16b-	.	.
=22	=22	=22	=22
4F	4a-	2B-]	2b-]
4D	4f	.	.
4G	4d	4f	4b
=23	=23	=23	=23
4C	4e-	4e-	4cc
4r	4r	4r	8.ee-
.	.	.	16cc
4F	4c	4e-	8.a
.	.	.	16cc
=24	=24	=24	=24
4B-	4d	4d	4b-
4F	2r	2r	2r
4BB-	.	.	.
=25	=25	=25	=25
2.r	4r	4r	2ff
.	4B-	4d-	.
.	8A	8c	8gg-
.	8r	8r	8r
=26	=26	=26	=26
2.r	4r	4r	2ff
.	4B-	4d-	.
.	8c	8e-	8ee-
.	8r	8r	8r
=27	=27	=27	=27
2.r	4r	4r	2dd-
.	4d-	4f	.
.	8e-	8g-	8cc
.	8r	8r	8r
=28	=28	=28	=28
2.r	4r	4r	2b-
.	4e	4g	.
.	8f	8f	8a
.	8r	8r	8r
=29	=29	=29	=29
2e-	2g-	2.r	4r
.	.	.	4cc
8d-	8f	.	8dd-
8r	8r	.	8r
=30	=30	=30	=30
2A-	2c	4r	4r
.	.	4ee-	4gg-
8B-	8d-	8dd-	8ff
8r	8r	8r	8r
=31	=31	=31	=31
2G-	2B-	4r	4r
.	.	4b-	4ee-
4A-	4A-	4g-	4cc
=32	=32	=32	=32
4D-	4d-	4f	4dd-
4AA-	2r	2r	2r
4DD-	.	.	.
=33	=33	=33	=33
4r	2.r	2ff	2aa-
4d-	.	.	.
8c	.	8gg-	8bb-
8r	.	8r	8r
=34	=34	=34	=34
4r	2.r	2ff	2aa-
4d-	.	.	.
8A-	.	8ee-	8gg-
8r	.	8r	8r
=35	=35	=35	=35
4r	2.r	2dd-	2ff
4B-	.	.	.
8A	.	8ee-	8gg-
8r	.	8r	8r
=36	=36	=36	=36
4r	2.r	2dd-	2ff
4B-	.	.	.
8F	.	8cc	8ee-
8r	.	8r	8r
=37	=37	=37	=37
2G-	2B-	2.r	4r
.	.	.	4dd-
8F	8A-	.	8dd
8r	8r	.	8r
=38	=38	=38	=38
2E-	2G-	2.r	4r
.	.	.	4ee-
8D	8F	.	8ff
8r	8r	.	8r
=39	=39	=39	=39
4r	4r	2a	2gg-
4c	4e-	.	.
8d-	8d-	8b-	8ff
8r	8r	8r	8r
=40	=40	=40	=40
4r	4r	2cc	2ee-
4A	4g-	.	.
8B-	8f	8b-	8dd-
8r	8r	8r	8r
=41	=41	=41	=41
4E-	4e-	4g-	4cc
4F	4d-	4f	4b-
4F	4c	4e-	4a
=42	=42	=42	=42
4B-	4B-	4d-	4b-
4F	2r	2r	2r
4BB-	.	.	.
==	==	==	==
*-	*-	*-	*-
!!!RWG1: This file contains only pitch and duration data.
!!!RWG2: Transposing instruments are not transposed.
!!!RWG3: Spines may have incompatible meters.
!!!RWG4: Durations of rests and tied notes may be interpreted.
!!!RWG: Key is interpreted using the Humdrum key tool.
!!!GTL: 6 Quators ("Jungfernquartette")
!!!AFT: stage1
!!!END: 1997/04/15
!!!KEY: 3081002358
!!!EMD: Converted from MuseData to Humdrum Dec 16, 2000, by Andreas Kornstaedt using muse2kern.
!!!EMD: Manual editing by Craig Sapp, Nov 2001
